ES1T1/13/aimg/b6.svg

<svg clip-rule="evenodd" fill-rule="evenodd" stroke-linejoin="round" stroke-miterlimit="2" viewBox="0 0 172 226" xmlns="http://www.w3.org/2000/svg" xmlns:xlink="http://www.w3.org/1999/xlink"><linearGradient id="a" gradientTransform="matrix(1 0 0 -1 0 .00452)" gradientUnits="userSpaceOnUse" x1="0" x2="1" y1="0" y2="0"><stop offset="0" stop-color="#fcb016"/><stop offset="1" stop-color="#f6861f"/></linearGradient><linearGradient id="b" gradientTransform="matrix(1 0 0 -1 0 .00452)" gradientUnits="userSpaceOnUse" x1="0" x2="1" y1="0" y2="0"><stop offset="0" stop-color="#ffde00"/><stop offset="1" stop-color="#fec12a"/></linearGradient><linearGradient id="c" gradientTransform="matrix(1 0 0 -1 0 .00446)" gradientUnits="userSpaceOnUse" x1="0" x2="1" y1="0" y2="0"><stop offset="0" stop-color="#fff185"/><stop offset="1" stop-color="#fcb016"/></linearGradient><linearGradient id="d" gradientTransform="matrix(1 0 0 -1 0 .003187)" gradientUnits="userSpaceOnUse" x1="0" x2="1" y1="0" y2="0"><stop offset="0" stop-color="#febf24"/><stop offset="1" stop-color="#f6861f"/></linearGradient><linearGradient id="e" gradientTransform="matrix(1 0 0 -1 0 .003187)" gradientUnits="userSpaceOnUse" x1="0" x2="1" y1="0" y2="0"><stop offset="0" stop-color="#d6e1e2"/><stop offset="1" stop-color="#a8bfbd"/></linearGradient><linearGradient id="f" gradientTransform="matrix(1 0 0 -1 0 .002937)" gradientUnits="userSpaceOnUse" x1="0" x2="1" y1="0" y2="0"><stop offset="0" stop-color="#fff"/><stop offset="1" stop-color="#dde6e6"/></linearGradient><g fill-rule="nonzero"><path d="m0 .118.014-.278c.005-.115.09-.202.2-.207l.551-.024c.12-.005.215.087.221.213l.014.348v.014c0 .149-.104.216-.2.216s-.194-.062-.205-.183c-.037.038-.083.044-.109.044-.043 0-.088-.016-.12-.056-.021.107-.104.146-.175.146-.092 0-.191-.067-.191-.216 0-.006 0-.011 0-.017z" fill="url(#a)" transform="matrix(0 216.163 216.163 0 85.407 9.8)"/><path d="m0 .118.014-.278c.005-.115.09-.202.2-.207l.551-.024c.12-.005.215.087.221.213l.014.348v.014c0 .149-.104.216-.2.216s-.194-.062-.205-.183c-.037.038-.083.044-.109.044-.043 0-.088-.016-.12-.056-.021.107-.104.146-.175.146-.092 0-.191-.067-.191-.216 0-.006 0-.011 0-.017z" fill="url(#b)" transform="matrix(0 216.157 216.157 0 85.407 .81)"/><path d="m0 .119.014-.28c.005-.114.089-.2.198-.205l.555-.024c.119-.005.213.085.219.21l.014.352v.014c0 .147-.102.213-.198.213-.097 0-.196-.065-.202-.19-.038.043-.087.049-.114.049-.024 0-.084-.005-.124-.061-.018.112-.102.153-.174.153-.09 0-.188-.067-.188-.214 0-.006 0-.011 0-.017z" fill="url(#c)" transform="matrix(0 214.371 214.371 0 85.43 .81)"/><path d="m0 .147.017-.339c.004-.083.061-.144.138-.148l.674-.029c.085-.004.15.06.154.153l.017.427c.005.12-.064.165-.133.165-.067 0-.149-.043-.139-.158l.023-.27-.163-.02-.016.159c-.009.097-.047.118-.089.118-.04 0-.082-.021-.089-.119l-.012-.184-.14-.018-.012.307c-.003.098-.055.125-.108.125-.059 0-.122-.04-.122-.153 0-.005 0-.01 0-.016z" fill="url(#d)" transform="matrix(0 176.643 176.643 0 85.825 24.16)"/><g fill="url(#e)"><path d="m0 .147.017-.339c.004-.083.061-.144.138-.148l.674-.029c.085-.004.15.061.154.153l.017.427c.005.12-.064.165-.133.165-.067 0-.149-.043-.139-.158l.023-.27-.163-.02-.016.159c-.009.097-.047.118-.089.118-.04 0-.082-.021-.089-.119l-.012-.184-.141-.018-.011.307c-.003.098-.055.125-.108.125-.06 0-.122-.04-.122-.153 0-.005 0-.01 0-.016z" transform="matrix(0 176.648 176.648 0 85.825 21.46)"/><path d="m0 .147.017-.339c.004-.083.061-.144.138-.148l.674-.029c.085-.004.15.061.154.153l.017.427c.005.12-.064.165-.133.165-.067 0-.149-.043-.139-.158l.023-.27-.163-.02-.016.159c-.009.097-.047.118-.089.118-.04 0-.082-.021-.089-.119l-.012-.184-.14-.018-.012.307c-.003.098-.055.125-.108.125-.059 0-.122-.04-.122-.153 0-.005 0-.011 0-.016z" transform="matrix(0 176.659 176.659 0 85.825 20.56)"/><path d="m0 .147.017-.339c.004-.083.061-.144.138-.148l.674-.029c.085-.004.15.06.154.153l.017.427c.005.12-.064.165-.133.165-.067 0-.149-.043-.139-.158l.023-.27-.163-.02-.016.159c-.009.097-.047.118-.089.118-.04 0-.082-.021-.089-.119l-.012-.184-.141-.018-.011.307c-.003.098-.055.125-.108.125-.06 0-.122-.04-.122-.153 0-.005 0-.01 0-.016z" transform="matrix(0 176.643 176.643 0 85.825 19.67)"/><path d="m0 .147.017-.339c.004-.083.061-.144.138-.148l.674-.029c.085-.004.15.061.154.153l.017.427c.005.12-.064.165-.133.165-.067 0-.149-.043-.139-.158l.023-.27-.163-.02-.016.159c-.009.097-.046.118-.089.118-.04 0-.082-.021-.089-.119l-.012-.184-.141-.018-.011.307c-.003.098-.055.125-.108.125-.059 0-.122-.04-.122-.153 0-.005 0-.01 0-.016z" transform="matrix(0 176.649 176.649 0 85.825 18.77)"/><path d="m0 .147.017-.339c.004-.083.061-.144.138-.148l.674-.029c.085-.004.15.061.154.153l.017.427c.005.12-.064.165-.133.165-.067 0-.149-.043-.139-.158l.023-.27-.163-.02-.016.159c-.009.097-.047.118-.089.118-.04 0-.082-.021-.089-.119l-.012-.184-.141-.018-.011.307c-.003.098-.055.125-.108.125-.059 0-.122-.04-.122-.153 0-.005 0-.01 0-.016z" transform="matrix(0 176.648 176.648 0 85.825 17.87)"/><path d="m0 .147.017-.339c.004-.083.061-.144.138-.148l.674-.029c.085-.004.15.06.154.153l.017.427c.005.12-.064.165-.133.165-.067 0-.149-.043-.139-.158l.023-.27-.163-.02-.016.159c-.009.097-.047.118-.089.118-.04 0-.082-.021-.089-.119l-.012-.184-.141-.018-.011.307c-.003.098-.055.125-.108.125-.06 0-.122-.04-.122-.153 0-.005 0-.01 0-.016z" transform="matrix(0 176.642 176.642 0 85.825 16.98)"/><path d="m0 .147.017-.339c.004-.083.061-.144.138-.148l.674-.029c.085-.004.15.06.154.153l.017.427c.005.12-.064.165-.133.165-.067 0-.149-.043-.139-.158l.023-.27-.163-.02-.016.159c-.009.097-.047.118-.089.118-.04 0-.082-.021-.089-.119l-.012-.184-.141-.018-.011.307c-.003.098-.055.125-.108.125-.06 0-.122-.04-.122-.153 0-.005 0-.011 0-.016z" transform="matrix(0 176.647 176.647 0 85.825 16.08)"/><path d="m0 .147.017-.339c.004-.083.061-.144.138-.148l.674-.029c.085-.004.15.061.154.153l.017.427c.005.12-.064.165-.133.165-.067 0-.149-.043-.139-.158l.023-.27-.163-.02-.016.159c-.009.097-.047.118-.089.118-.04 0-.082-.021-.089-.119l-.012-.184-.141-.018-.011.307c-.003.098-.055.125-.108.125-.06 0-.122-.04-.122-.153 0-.005 0-.011 0-.016z" transform="matrix(0 176.653 176.653 0 85.825 15.17)"/><path d="m0 .147.017-.339c.004-.083.061-.144.138-.148l.674-.029c.085-.004.15.061.154.153l.017.427c.005.12-.064.165-.133.165-.067 0-.149-.043-.139-.158l.023-.27-.163-.02-.016.159c-.009.097-.047.118-.089.118-.04 0-.082-.021-.089-.119l-.012-.184-.141-.018-.011.307c-.003.098-.055.125-.108.125-.06 0-.122-.04-.122-.153 0-.005 0-.011 0-.016z" transform="matrix(0 176.653 176.653 0 85.825 14.28)"/><path d="m0 .163v-.016l.017-.339c.004-.083.061-.144.138-.148l.674-.029c.085-.004.15.06.154.153l.017.427c.005.12-.064.165-.133.165-.067 0-.149-.043-.139-.158l.023-.27-.163-.02-.016.159c-.009.097-.047.118-.089.118-.04 0-.082-.021-.089-.119l-.012-.184-.141-.018-.011.307c-.003.098-.055.125-.108.125-.059 0-.122-.04-.122-.153z" transform="matrix(0 176.644 176.644 0 85.825 13.39)"/></g><path d="m0 31.137c0 2.914-1.905 5.854-7.001 5.629l-18.089-.727c-3.92-.17-6.637-2.912-6.496-6.526l1.26-28.563c.14-3.275 2.716-5.681 6.244-5.85l14.391-.701c5.294-.253 7.142 2.521 7.142 5.153 0 2.268-1.12 4.453-5.293 4.592l-12.992.478.755 5.962 7.815.504c4.113.281 5.011 2.073 5.011 3.754 0 1.819-.898 3.414-4.984 3.809l-6.749.643.868 6.944 11.425-.979c4.872-.421 6.693 3.05 6.693 5.878" fill="#fff" transform="matrix(4.16667 0 0 4.16667 152.203 36.79)"/><path d="m0 .154.018-.354c.003-.075.054-.13.123-.133l.702-.031c.078-.003.135.054.139.139l.018.445v.012c0 .128-.09.138-.117.138-.058 0-.125-.032-.125-.124 0-.006.001-.011.001-.017 0 0 .024-.283.024-.283 0-.011-.008-.02-.018-.021l-.171-.022c-.006 0-.011.001-.016.005-.004.004-.007.009-.008.015l-.016.165c-.01.104-.05.104-.072.104-.018 0-.064 0-.071-.104l-.013-.192c0-.01-.008-.018-.018-.019l-.147-.019c-.006-.001-.012.001-.016.005-.005.004-.007.009-.008.015l-.011.32c-.003.074-.033.109-.092.109-.066 0-.106-.051-.106-.138 0-.005 0-.01 0-.015z" fill="url(#f)" transform="matrix(0 169.461 169.461 0 85.887 18.77)"/></g></svg>

<?xml version="1.0" encoding="UTF-8" standalone="no"?>
<!DOCTYPE svg PUBLIC "-//W3C//DTD SVG 1.1//EN" "http://www.w3.org/Graphics/SVG/1.1/DTD/svg11.dtd">
<svg width="100%" height="100%" viewBox="0 0 172 226" version="1.1" xmlns="http://www.w3.org/2000/svg" xmlns:xlink="http://www.w3.org/1999/xlink" xml:space="preserve" xmlns:serif="http://www.serif.com/" style="fill-rule:evenodd;clip-rule:evenodd;stroke-linejoin:round;stroke-miterlimit:2;">
    <g transform="matrix(1,0,0,1,-462,-1112)">
        <g>
            <g transform="matrix(0,216.163,216.163,0,547.407,1121.8)">
                <path d="M0,0.118L0.014,-0.16C0.019,-0.275 0.104,-0.362 0.214,-0.367L0.765,-0.391C0.885,-0.396 0.98,-0.304 0.986,-0.178L1,0.17C1,0.175 1,0.18 1,0.184C1,0.333 0.896,0.4 0.8,0.4C0.704,0.4 0.606,0.338 0.595,0.217C0.558,0.255 0.512,0.261 0.486,0.261C0.443,0.261 0.398,0.245 0.366,0.205C0.345,0.312 0.262,0.351 0.191,0.351C0.099,0.351 0,0.284 0,0.135C0,0.129 0,0.124 0,0.118Z" style="fill:url(#_Linear1);fill-rule:nonzero;"/>
            </g>
            <g transform="matrix(0,216.157,216.157,0,547.407,1112.81)">
                <path d="M0,0.118L0.014,-0.16C0.019,-0.275 0.104,-0.362 0.214,-0.367L0.765,-0.391C0.885,-0.396 0.98,-0.304 0.986,-0.178L1,0.17C1,0.175 1,0.18 1,0.184C1,0.333 0.896,0.4 0.8,0.4C0.704,0.4 0.606,0.338 0.595,0.217C0.558,0.255 0.512,0.261 0.486,0.261C0.443,0.261 0.398,0.245 0.366,0.205C0.345,0.312 0.262,0.351 0.191,0.351C0.099,0.351 0,0.284 0,0.135C0,0.129 0,0.124 0,0.118Z" style="fill:url(#_Linear2);fill-rule:nonzero;"/>
            </g>
            <g transform="matrix(0,214.371,214.371,0,547.43,1112.81)">
                <path d="M0,0.119L0.014,-0.161C0.019,-0.275 0.103,-0.361 0.212,-0.366L0.767,-0.39C0.886,-0.395 0.98,-0.305 0.986,-0.18L1,0.172C1,0.176 1,0.181 1,0.186C1,0.333 0.898,0.399 0.802,0.399C0.705,0.399 0.606,0.334 0.6,0.209C0.562,0.252 0.513,0.258 0.486,0.258C0.462,0.258 0.402,0.253 0.362,0.197C0.344,0.309 0.26,0.35 0.188,0.35C0.098,0.35 0,0.283 0,0.136C0,0.13 0,0.125 0,0.119Z" style="fill:url(#_Linear3);fill-rule:nonzero;"/>
            </g>
            <g transform="matrix(0,176.643,176.643,0,547.825,1136.16)">
                <path d="M0,0.147L0.017,-0.192C0.021,-0.275 0.078,-0.336 0.155,-0.34L0.829,-0.369C0.914,-0.373 0.979,-0.309 0.983,-0.216L1,0.211C1.005,0.331 0.936,0.376 0.867,0.376C0.8,0.376 0.718,0.333 0.728,0.218L0.751,-0.052L0.588,-0.072L0.572,0.087C0.563,0.184 0.525,0.205 0.483,0.205C0.443,0.205 0.401,0.184 0.394,0.086L0.382,-0.098L0.242,-0.116L0.23,0.191C0.227,0.289 0.175,0.316 0.122,0.316C0.063,0.316 0,0.276 0,0.163C0,0.158 0,0.153 0,0.147Z" style="fill:url(#_Linear4);fill-rule:nonzero;"/>
            </g>
            <g transform="matrix(0,176.648,176.648,0,547.825,1133.46)">
                <path d="M0,0.147L0.017,-0.192C0.021,-0.275 0.078,-0.336 0.155,-0.34L0.829,-0.369C0.914,-0.373 0.979,-0.308 0.983,-0.216L1,0.211C1.005,0.331 0.936,0.376 0.867,0.376C0.8,0.376 0.718,0.333 0.728,0.218L0.751,-0.052L0.588,-0.072L0.572,0.087C0.563,0.184 0.525,0.205 0.483,0.205C0.443,0.205 0.401,0.184 0.394,0.086L0.382,-0.098L0.241,-0.116L0.23,0.191C0.227,0.289 0.175,0.316 0.122,0.316C0.062,0.316 0,0.276 0,0.163C0,0.158 0,0.153 0,0.147Z" style="fill:url(#_Linear5);fill-rule:nonzero;"/>
            </g>
            <g transform="matrix(0,176.659,176.659,0,547.825,1132.56)">
                <path d="M0,0.147L0.017,-0.192C0.021,-0.275 0.078,-0.336 0.155,-0.34L0.829,-0.369C0.914,-0.373 0.979,-0.308 0.983,-0.216L1,0.211C1.005,0.331 0.936,0.376 0.867,0.376C0.8,0.376 0.718,0.333 0.728,0.218L0.751,-0.052L0.588,-0.072L0.572,0.087C0.563,0.184 0.525,0.205 0.483,0.205C0.443,0.205 0.401,0.184 0.394,0.086L0.382,-0.098L0.242,-0.116L0.23,0.191C0.227,0.289 0.175,0.316 0.122,0.316C0.063,0.316 0,0.276 0,0.163C0,0.158 0,0.152 0,0.147Z" style="fill:url(#_Linear6);fill-rule:nonzero;"/>
            </g>
            <g transform="matrix(0,176.643,176.643,0,547.825,1131.67)">
                <path d="M0,0.147L0.017,-0.192C0.021,-0.275 0.078,-0.336 0.155,-0.34L0.829,-0.369C0.914,-0.373 0.979,-0.309 0.983,-0.216L1,0.211C1.005,0.331 0.936,0.376 0.867,0.376C0.8,0.376 0.718,0.333 0.728,0.218L0.751,-0.052L0.588,-0.072L0.572,0.087C0.563,0.184 0.525,0.205 0.483,0.205C0.443,0.205 0.401,0.184 0.394,0.086L0.382,-0.098L0.241,-0.116L0.23,0.191C0.227,0.289 0.175,0.316 0.122,0.316C0.062,0.316 0,0.276 0,0.163C0,0.158 0,0.153 0,0.147Z" style="fill:url(#_Linear7);fill-rule:nonzero;"/>
            </g>
            <g transform="matrix(0,176.649,176.649,0,547.825,1130.77)">
                <path d="M0,0.147L0.017,-0.192C0.021,-0.275 0.078,-0.336 0.155,-0.34L0.829,-0.369C0.914,-0.373 0.979,-0.308 0.983,-0.216L1,0.211C1.005,0.331 0.936,0.376 0.867,0.376C0.8,0.376 0.718,0.333 0.728,0.218L0.751,-0.052L0.588,-0.072L0.572,0.087C0.563,0.184 0.526,0.205 0.483,0.205C0.443,0.205 0.401,0.184 0.394,0.086L0.382,-0.098L0.241,-0.116L0.23,0.191C0.227,0.289 0.175,0.316 0.122,0.316C0.063,0.316 0,0.276 0,0.163C0,0.158 0,0.153 0,0.147Z" style="fill:url(#_Linear8);fill-rule:nonzero;"/>
            </g>
            <g transform="matrix(0,176.648,176.648,0,547.825,1129.87)">
                <path d="M0,0.147L0.017,-0.192C0.021,-0.275 0.078,-0.336 0.155,-0.34L0.829,-0.369C0.914,-0.373 0.979,-0.308 0.983,-0.216L1,0.211C1.005,0.331 0.936,0.376 0.867,0.376C0.8,0.376 0.718,0.333 0.728,0.218L0.751,-0.052L0.588,-0.072L0.572,0.087C0.563,0.184 0.525,0.205 0.483,0.205C0.443,0.205 0.401,0.184 0.394,0.086L0.382,-0.098L0.241,-0.116L0.23,0.191C0.227,0.289 0.175,0.316 0.122,0.316C0.063,0.316 0,0.276 0,0.163C0,0.158 0,0.153 0,0.147Z" style="fill:url(#_Linear9);fill-rule:nonzero;"/>
            </g>
            <g transform="matrix(0,176.642,176.642,0,547.825,1128.98)">
                <path d="M0,0.147L0.017,-0.192C0.021,-0.275 0.078,-0.336 0.155,-0.34L0.829,-0.369C0.914,-0.373 0.979,-0.309 0.983,-0.216L1,0.211C1.005,0.331 0.936,0.376 0.867,0.376C0.8,0.376 0.718,0.333 0.728,0.218L0.751,-0.052L0.588,-0.072L0.572,0.087C0.563,0.184 0.525,0.205 0.483,0.205C0.443,0.205 0.401,0.184 0.394,0.086L0.382,-0.098L0.241,-0.116L0.23,0.191C0.227,0.289 0.175,0.316 0.122,0.316C0.062,0.316 0,0.276 0,0.163C0,0.158 0,0.153 0,0.147Z" style="fill:url(#_Linear10);fill-rule:nonzero;"/>
            </g>
            <g transform="matrix(0,176.647,176.647,0,547.825,1128.08)">
                <path d="M0,0.147L0.017,-0.192C0.021,-0.275 0.078,-0.336 0.155,-0.34L0.829,-0.369C0.914,-0.373 0.979,-0.309 0.983,-0.216L1,0.211C1.005,0.331 0.936,0.376 0.867,0.376C0.8,0.376 0.718,0.333 0.728,0.218L0.751,-0.052L0.588,-0.072L0.572,0.087C0.563,0.184 0.525,0.205 0.483,0.205C0.443,0.205 0.401,0.184 0.394,0.086L0.382,-0.098L0.241,-0.116L0.23,0.191C0.227,0.289 0.175,0.316 0.122,0.316C0.062,0.316 0,0.276 0,0.163C0,0.158 0,0.152 0,0.147Z" style="fill:url(#_Linear11);fill-rule:nonzero;"/>
            </g>
            <g transform="matrix(0,176.653,176.653,0,547.825,1127.17)">
                <path d="M0,0.147L0.017,-0.192C0.021,-0.275 0.078,-0.336 0.155,-0.34L0.829,-0.369C0.914,-0.373 0.979,-0.308 0.983,-0.216L1,0.211C1.005,0.331 0.936,0.376 0.867,0.376C0.8,0.376 0.718,0.333 0.728,0.218L0.751,-0.052L0.588,-0.072L0.572,0.087C0.563,0.184 0.525,0.205 0.483,0.205C0.443,0.205 0.401,0.184 0.394,0.086L0.382,-0.098L0.241,-0.116L0.23,0.191C0.227,0.289 0.175,0.316 0.122,0.316C0.062,0.316 0,0.276 0,0.163C0,0.158 0,0.152 0,0.147Z" style="fill:url(#_Linear12);fill-rule:nonzero;"/>
            </g>
            <g transform="matrix(0,176.653,176.653,0,547.825,1126.28)">
                <path d="M0,0.147L0.017,-0.192C0.021,-0.275 0.078,-0.336 0.155,-0.34L0.829,-0.369C0.914,-0.373 0.979,-0.308 0.983,-0.216L1,0.211C1.005,0.331 0.936,0.376 0.867,0.376C0.8,0.376 0.718,0.333 0.728,0.218L0.751,-0.052L0.588,-0.072L0.572,0.087C0.563,0.184 0.525,0.205 0.483,0.205C0.443,0.205 0.401,0.184 0.394,0.086L0.382,-0.098L0.241,-0.116L0.23,0.191C0.227,0.289 0.175,0.316 0.122,0.316C0.062,0.316 0,0.276 0,0.163C0,0.158 0,0.152 0,0.147Z" style="fill:url(#_Linear13);fill-rule:nonzero;"/>
            </g>
            <g transform="matrix(0,176.644,176.644,0,547.825,1125.39)">
                <path d="M0,0.163L0,0.147L0.017,-0.192C0.021,-0.275 0.078,-0.336 0.155,-0.34L0.829,-0.369C0.914,-0.373 0.979,-0.309 0.983,-0.216L1,0.211C1.005,0.331 0.936,0.376 0.867,0.376C0.8,0.376 0.718,0.333 0.728,0.218L0.751,-0.052L0.588,-0.072L0.572,0.087C0.563,0.184 0.525,0.205 0.483,0.205C0.443,0.205 0.401,0.184 0.394,0.086L0.382,-0.098L0.241,-0.116L0.23,0.191C0.227,0.289 0.175,0.316 0.122,0.316C0.063,0.316 0,0.276 0,0.163Z" style="fill:url(#_Linear14);fill-rule:nonzero;"/>
            </g>
            <g transform="matrix(4.16667,0,0,4.16667,614.203,1148.79)">
                <path d="M0,31.137C0,34.051 -1.905,36.991 -7.001,36.766L-25.09,36.039C-29.01,35.869 -31.727,33.127 -31.586,29.513L-30.326,0.95C-30.186,-2.325 -27.61,-4.731 -24.082,-4.9L-9.691,-5.601C-4.397,-5.854 -2.549,-3.08 -2.549,-0.448C-2.549,1.82 -3.669,4.005 -7.842,4.144L-20.834,4.622L-20.079,10.584L-12.264,11.088C-8.151,11.369 -7.253,13.161 -7.253,14.842C-7.253,16.661 -8.151,18.256 -12.237,18.651L-18.986,19.294L-18.118,26.238L-6.693,25.259C-1.821,24.838 0,28.309 0,31.137" style="fill:white;fill-rule:nonzero;"/>
            </g>
            <g transform="matrix(0,169.461,169.461,0,547.887,1130.77)">
                <path d="M0,0.154L0.018,-0.2C0.021,-0.275 0.072,-0.33 0.141,-0.333L0.843,-0.364C0.921,-0.367 0.978,-0.31 0.982,-0.225L1,0.22C1,0.224 1,0.228 1,0.232C1,0.36 0.91,0.37 0.883,0.37C0.825,0.37 0.758,0.338 0.758,0.246C0.758,0.24 0.759,0.235 0.759,0.229C0.759,0.229 0.783,-0.054 0.783,-0.054C0.783,-0.065 0.775,-0.074 0.765,-0.075L0.594,-0.097C0.588,-0.097 0.583,-0.096 0.578,-0.092C0.574,-0.088 0.571,-0.083 0.57,-0.077L0.554,0.088C0.544,0.192 0.504,0.192 0.482,0.192C0.464,0.192 0.418,0.192 0.411,0.088L0.398,-0.104C0.398,-0.114 0.39,-0.122 0.38,-0.123L0.233,-0.142C0.227,-0.143 0.221,-0.141 0.217,-0.137C0.212,-0.133 0.21,-0.128 0.209,-0.122L0.198,0.198C0.195,0.272 0.165,0.307 0.106,0.307C0.04,0.307 0,0.256 0,0.169C0,0.164 0,0.159 0,0.154Z" style="fill:url(#_Linear15);fill-rule:nonzero;"/>
            </g>
        </g>
    </g>
    <defs>
        <linearGradient id="_Linear1" x1="0" y1="0" x2="1" y2="0" gradientUnits="userSpaceOnUse" gradientTransform="matrix(1,0,0,-1,0,0.00452029)"><stop offset="0" style="stop-color:rgb(252,176,22);stop-opacity:1"/><stop offset="1" style="stop-color:rgb(246,134,31);stop-opacity:1"/></linearGradient>
        <linearGradient id="_Linear2" x1="0" y1="0" x2="1" y2="0" gradientUnits="userSpaceOnUse" gradientTransform="matrix(1,0,0,-1,0,0.0045204)"><stop offset="0" style="stop-color:rgb(255,222,0);stop-opacity:1"/><stop offset="1" style="stop-color:rgb(254,193,42);stop-opacity:1"/></linearGradient>
        <linearGradient id="_Linear3" x1="0" y1="0" x2="1" y2="0" gradientUnits="userSpaceOnUse" gradientTransform="matrix(1,0,0,-1,0,0.00445998)"><stop offset="0" style="stop-color:rgb(255,241,133);stop-opacity:1"/><stop offset="1" style="stop-color:rgb(252,176,22);stop-opacity:1"/></linearGradient>
        <linearGradient id="_Linear4" x1="0" y1="0" x2="1" y2="0" gradientUnits="userSpaceOnUse" gradientTransform="matrix(1,0,0,-1,0,0.00318743)"><stop offset="0" style="stop-color:rgb(254,191,36);stop-opacity:1"/><stop offset="1" style="stop-color:rgb(246,134,31);stop-opacity:1"/></linearGradient>
        <linearGradient id="_Linear5" x1="0" y1="0" x2="1" y2="0" gradientUnits="userSpaceOnUse" gradientTransform="matrix(1,0,0,-1,0,0.00318734)"><stop offset="0" style="stop-color:rgb(214,225,226);stop-opacity:1"/><stop offset="0" style="stop-color:rgb(214,225,226);stop-opacity:1"/><stop offset="1" style="stop-color:rgb(168,191,189);stop-opacity:1"/></linearGradient>
        <linearGradient id="_Linear6" x1="0" y1="0" x2="1" y2="0" gradientUnits="userSpaceOnUse" gradientTransform="matrix(1,0,0,-1,0,0.00318715)"><stop offset="0" style="stop-color:rgb(214,225,226);stop-opacity:1"/><stop offset="0" style="stop-color:rgb(214,225,226);stop-opacity:1"/><stop offset="1" style="stop-color:rgb(168,191,189);stop-opacity:1"/></linearGradient>
        <linearGradient id="_Linear7" x1="0" y1="0" x2="1" y2="0" gradientUnits="userSpaceOnUse" gradientTransform="matrix(1,0,0,-1,0,0.00318744)"><stop offset="0" style="stop-color:rgb(214,225,226);stop-opacity:1"/><stop offset="0" style="stop-color:rgb(214,225,226);stop-opacity:1"/><stop offset="1" style="stop-color:rgb(168,191,189);stop-opacity:1"/></linearGradient>
        <linearGradient id="_Linear8" x1="0" y1="0" x2="1" y2="0" gradientUnits="userSpaceOnUse" gradientTransform="matrix(1,0,0,-1,0,0.00318733)"><stop offset="0" style="stop-color:rgb(214,225,226);stop-opacity:1"/><stop offset="0" style="stop-color:rgb(214,225,226);stop-opacity:1"/><stop offset="1" style="stop-color:rgb(168,191,189);stop-opacity:1"/></linearGradient>
        <linearGradient id="_Linear9" x1="0" y1="0" x2="1" y2="0" gradientUnits="userSpaceOnUse" gradientTransform="matrix(1,0,0,-1,0,0.00318734)"><stop offset="0" style="stop-color:rgb(214,225,226);stop-opacity:1"/><stop offset="0" style="stop-color:rgb(214,225,226);stop-opacity:1"/><stop offset="1" style="stop-color:rgb(168,191,189);stop-opacity:1"/></linearGradient>
        <linearGradient id="_Linear10" x1="0" y1="0" x2="1" y2="0" gradientUnits="userSpaceOnUse" gradientTransform="matrix(1,0,0,-1,0,0.00318745)"><stop offset="0" style="stop-color:rgb(214,225,226);stop-opacity:1"/><stop offset="0" style="stop-color:rgb(214,225,226);stop-opacity:1"/><stop offset="1" style="stop-color:rgb(168,191,189);stop-opacity:1"/></linearGradient>
        <linearGradient id="_Linear11" x1="0" y1="0" x2="1" y2="0" gradientUnits="userSpaceOnUse" gradientTransform="matrix(1,0,0,-1,0,0.00318736)"><stop offset="0" style="stop-color:rgb(214,225,226);stop-opacity:1"/><stop offset="0" style="stop-color:rgb(214,225,226);stop-opacity:1"/><stop offset="1" style="stop-color:rgb(168,191,189);stop-opacity:1"/></linearGradient>
        <linearGradient id="_Linear12" x1="0" y1="0" x2="1" y2="0" gradientUnits="userSpaceOnUse" gradientTransform="matrix(1,0,0,-1,0,0.00318725)"><stop offset="0" style="stop-color:rgb(214,225,226);stop-opacity:1"/><stop offset="0" style="stop-color:rgb(214,225,226);stop-opacity:1"/><stop offset="1" style="stop-color:rgb(168,191,189);stop-opacity:1"/></linearGradient>
        <linearGradient id="_Linear13" x1="0" y1="0" x2="1" y2="0" gradientUnits="userSpaceOnUse" gradientTransform="matrix(1,0,0,-1,0,0.00318725)"><stop offset="0" style="stop-color:rgb(214,225,226);stop-opacity:1"/><stop offset="0" style="stop-color:rgb(214,225,226);stop-opacity:1"/><stop offset="1" style="stop-color:rgb(168,191,189);stop-opacity:1"/></linearGradient>
        <linearGradient id="_Linear14" x1="0" y1="0" x2="1" y2="0" gradientUnits="userSpaceOnUse" gradientTransform="matrix(1,0,0,-1,0,0.00318742)"><stop offset="0" style="stop-color:rgb(214,225,226);stop-opacity:1"/><stop offset="0" style="stop-color:rgb(214,225,226);stop-opacity:1"/><stop offset="1" style="stop-color:rgb(168,191,189);stop-opacity:1"/></linearGradient>
        <linearGradient id="_Linear15" x1="0" y1="0" x2="1" y2="0" gradientUnits="userSpaceOnUse" gradientTransform="matrix(1,0,0,-1,0,0.00293688)"><stop offset="0" style="stop-color:white;stop-opacity:1"/><stop offset="0" style="stop-color:white;stop-opacity:1"/><stop offset="1" style="stop-color:rgb(221,230,230);stop-opacity:1"/><stop offset="1" style="stop-color:rgb(221,230,230);stop-opacity:1"/></linearGradient>
    </defs>
</svg>
